img/footer/youtube.svg

<svg width="25" height="18" viewBox="0 0 25 18" fill="none" xmlns="http://www.w3.org/2000/svg">
<path d="M19.8078 0H5.19218C2.32462 0 0 2.31173 0 5.16341V12.4292C0 15.2809 2.32462 17.5926 5.19218 17.5926H19.8078C22.6754 17.5926 25 15.2809 25 12.4292V5.16341C25 2.31173 22.6754 0 19.8078 0ZM16.2964 9.1498L9.46017 12.3922C9.27802 12.4786 9.06761 12.3465 9.06761 12.1458V5.4584C9.06761 5.25487 9.28355 5.12296 9.46609 5.21496L16.3023 8.66002C16.5055 8.76243 16.502 9.0523 16.2964 9.1498Z" fill="white"/>
</svg>

<svg width="25" height="18" fill="none" xmlns="http://www.w3.org/2000/svg"><path d="M19.808 0H5.192C2.325 0 0 2.312 0 5.163v7.266c0 2.852 2.325 5.164 5.192 5.164h14.616c2.867 0 5.192-2.312 5.192-5.164V5.163C25 2.312 22.675 0 19.808 0zm-3.512 9.15L9.46 12.392a.274.274 0 01-.392-.246V5.458c0-.203.216-.335.398-.243l6.836 3.445c.204.102.2.392-.006.49z" fill="#fff"/></svg>
